X:1
T:Os justi
T:Os Justi
T:Joseph Anton Bruckner (1824-1896)
T:1879
T:edited by W. Chmiak For the Gloria Dei Schola
C:Joseph Anton Bruckner (1824-1896)
%%score [ ( 1 2 ) ( 3 4 ) ( 5 6 ) ( 7 8 ) ]
L:1/8
M:2/2
K:C
V:1 treble nm="Soprano" snm="S."
V:2 treble 
V:3 treble nm="Alto" snm="A."
V:4 treble 
V:5 treble-8 nm="Tenor" snm="T."
V:6 treble-8 
V:7 bass nm="Bass" snm="B."
V:8 bass 
V:1
 z4!p! A4 | A4 A4 | z4!<(! A2 A2 | d3 d d4!<)! |!mf! (B4 c2) A2 | B6 c2 | A4 z4 | z4!p! A4 | %8
w: Os|jus- ti|me- di-|ta- bi- tur|sa- * pi-|en- ti-|am,|os|
 d4 d4 | z4!f! e2 e2 | (a4 g4 | f2) f2 e4 | (d4 c4 | B4 A2) A2 |"^dim." (G4 A2) A2 | B4 z4 | z8 | %17
w: jus- ti|me- di-|ta- *|* bi- tur|sa- *|* * pi-|en- * ti-|am:||
 z4 z2!p! d2 | (d2 e4) c2 | (BA) (AG) (ABcd) | (e2 d"^cresc."c) d2 (ed/e/) | (fgc f2 g/f/ed | %22
w: et|lin- * gua|e- * jus _ lo- * * *|que- * * tur ju- * *|di- * * * * * * *|
 c3) B A4 | z2!mf! (g2 d2 g2) | e3 e E4 | z4 z2!f! f2 | (f2 g4) e2 | (ed"^dim." dc/B/ cd)!p! e e | %28
w: * ci- um,|ju- * *|di- ci- um,|et|lin- * gua|e- * * * * * * jus, et|
 (e2 f4) d2 | d2 e4 c2 |"^dim." (c2 d2) d2 B2 | (B2 c4) A2 | A2 z2!pp! (d2 B2) | (B2 c4) A2 | %34
w: lin- * gua|e- jus lo-|que- * tur ju-|di- * ci-|um, et _|lin- * gua|
 A2 G2 z4 | z4 z2!mf! d2 | (d2 e4) c2 | (BA) (AG) (GAdc/B/) | (BGAB cBcd | eB) (cd)!ff! (efef) | %40
w: e- jus,|et|lin- * gua|e- * jus _ lo- * * * *|que- * * * * * * *|* * tur _ ju- * * *|
 g6 g2 | g4 z4 | z4!p! G4 | G6 G2 | A8 | A4 A4 |"^dim." c4 B2 B2 | (A4 G4) | A4 z4 | %49
w: di- ci-|um.|Lex|De- i|e-|jus in|cor- de ip-|si- *|us,|
 z4!pp!"^cresc." A4 | d4 d4 | z4!ff! e4 | (a4 g4 | f4 e2) e2 | d4 c2 c2 |"^dim." B4 A2 A2 | G4 G4 | %57
w: lex|De- i,|lex|De- *|* * i|e- jus in|cor- de ip-|si- us,|
 z2 G2 G2 F2 |!p! G4 F4 | z2"^dim." G2 G2 F2 | z4!pp! G4 | G4 G2 G2 | G8- | %63
w: in cor- de,|cor- de,|in cor- de,|in|cor- de ip-|si-|
"^Translation: The mouth of the righteous utters wisdom,  and his tongue speaks what is just.\nThe law of his God is in his heart; and his steps will not be impeded.  Amen." G8 | %64
w: |
 A2!ppp! A2 A2 A2 | (A2 c2) (A2 G2) | F4 (G2 A2) | A2 c2 (A2 G2) |"^rall." (G2 A2) z4 || %69
w: us: et non sup-|plan- * ta- *|bun- tur _|gres- sus e- *|jus. _|
"^a tempo"!mp! (F!<(!G) A (Ac) (A!<)!!p!G) z |!>(! (FG) A G (G2!>)!!pp! F2) |] %71
w: Al- * le- lu- * ja, _|al- * le- lu- ja. _|
V:2
 x8 | x8 | x8 | x8 | x8 | x8 | x8 | x8 | A4 A4 | x4 c2 c2 | c6 e2 | f2 A2 e4 | x8 | x8 | x8 | x8 | %16
 x8 | x8 | x8 | x8 | x8 | x8 | x8 | x8 | x8 | x8 | x8 | x8 | x8 | x8 | x8 | x8 | x8 | x8 | x8 | %35
 x8 | x8 | x8 | x8 | x8 | x8 | x8 | x8 | x8 | x8 | x8 | x8 | x8 | x8 | x4 A4 | A4 A4 | x4 c4 | %52
 c6 e2 | f2 A2 e2 e2 | x8 | x8 | x8 | x8 | x8 | x8 | x8 | x8 | x8 | x8 | x8 | x8 | x8 | x8 | x8 || %69
 x8 | x8 |] %71
V:3
 z4!p! F4 | F4 F4 | z4!<(! F2 F2 | A3 A A4!<)! |!mf! (G4 E2) (EA) | (A2 GF ED) C2 | C4 z4 | %7
w: Os|jus- ti|me- di-|ta- bi- tur|sa- * pi- *|en- * * * * ti-|am,|
 z4!p! F4 | F4 F4 | z4!f! G2 G2 | (A4 c4 | A2) A2 G4 | (G4 E4 | E4 C2) C2 |"^dim." C6 C2 | %15
w: os|jus- ti|me- di-|ta- *|* bi- tur|sa- *|* * pi-|en- ti-|
 D4 z2!p! G2 | (G2 A4) F2 | (ED) (DC) (DEFG) | (A2 GF) (ED) (EF) | (G2 F) G F2 (EC) | %20
w: am: et|lin- * gua|e- * jus _ lo- * * *|que- * * tur _ ju- *|di- * ci- um, ju- *|
 (B,CD)"^cresc." A (GA) B2 | (AB cB/A/ G2 A) B | c2 z2 z4 | z4 z2!mf! B2 | (B2 c4) A2 | %25
w: di- * * ci- um, _ ju-|di- * * * * * * ci-|um,|et|lin- * gua|
 (GF) (FE) (FGAB) | (c2 BA GA/B/) c B | A3/2 A/ G2 z4 | z2 A2 A2 B2 | B2 G4 A2 | %30
w: e- * jus _ lo- * * *|que- * * * * * tur ju-|di- ci- um,|et lin- gua|e- jus lo-|
"^dim." (A2 F2) F2 G2 | (G2 E4) F2 | E2 z2!pp! G4 | (G2 E2 F2) F2 | D2 D2"^cresc." (EDCG) | %35
w: que- * tur ju-|di- * ci-|um, et|lin- * * gua|e- jus lo- * * *|
 (GFGA) D2!mf! A2 | A3 A A4 | z4 (D3 G) | (E4 A4-) | A2 A2!ff! A4 | B6 B2 | B4 z4 | z4!p! D4 | %43
w: que- * * * tur ju-|di- ci- um,|lo- *|que- *|* tur ju-|di- ci-|um.|Lex|
 D6 E2 | F8 | F4 F4 |"^dim." G4 G2 G2 | (F4 D2 E2) | F4 z4 | z4!pp!"^cresc." F4 | F4 F4 | %51
w: De- i|e-|jus in|cor- de ip-|si- * *|us,|lex|De- i,|
 z4!ff! G4 | (A4 c4 | A4 G2) G2 | G4 [CE]2 [CE]2 |"^dim." E4 [A,C]2 F2 | F2 E E E2 D2 | %57
w: lex|De- *|* * i|e- jus in|cor- de ip-|si- us, in cor- de,|
 D2 C2 z2!p! F2 | (F2 E4) D2 | D2 C2 z4 | z4!pp! F4 | F4 E2 D2 | (F2 D4 E2 | F4 E4) | %64
w: cor- de, in|cor- * de,|cor- de,|in|cor- de ip-|si- * *||
 F2!ppp! F2 F2 F2 | F4 F4 | F4 F4 | F2 F2 F4 | F4 z4 ||!mp! (F!<(!G) A (Ac) (A!<)!!p!G) z | %70
w: us: et non sup-|plan- ta-|bun- tur|gres- sus e-|jus.|Al- * le- lu- * ja, _|
!>(! (FG) A G (G2!>)!!pp! F2) |] %71
w: al- * le- lu- ja. _|
V:4
 x8 | x8 | x8 | x8 | x8 | x8 | x8 | x8 | x8 | x4 G2 G2 | (C2 F2 G2 c2 | F2) F2 G4 | (G4 C4 | %13
 E4 A,2) A,2 | x8 | x8 | x8 | x8 | x8 | x8 | x8 | x8 | x8 | x8 | x8 | x8 | x8 | x8 | x8 | x8 | x8 | %31
 x8 | x8 | x8 | x8 | x8 | x8 | x8 | x8 | x8 | x8 | x8 | x8 | x8 | x8 | x8 | x8 | x8 | x8 | x8 | %50
 x8 | x4 G4 | C2 F2 G2 c2 | F4 G2 G2 | G4 x4 | E4 x2 F2 | x8 | x8 | x8 | x8 | x8 | x8 | x8 | x8 | %64
 x8 | x8 | x8 | x8 | x8 || x8 | x8 |] %71
V:5
 z4!p! c4 | c4 c4 | z4!<(! c2 c2 | f3 f f4!<)! |!mf! (d4 c2) c2 | (B3 A G2) G2 | A4!p! c4 | c4 c4 | %8
w: Os|jus- ti|me- di-|ta- bi- tur|sa- * pi-|en- * * ti-|am, os|jus- ti|
 z4!mf! d2 d2 | e3 g g4 |!f! (g2 f4 e2- | e2 d4 c2- | c2 B4 A2- | A2 G4) F2 | %14
w: me- di-|ta- bi- tur|sa- * *|||* * pi-|
"^dim." (F2 ED E2) E2 | G4 z4 | z8 | z8 | z8 | z8 | z8 | z4 z2!mf! e2 | (e2 f4) d2 | %23
w: en- * * * ti-|am:||||||et|lin- * gua|
 (cB) (BA) (B d2 e) | (cd) c2 z2!f! c2 | (c2 A4) d2 | (a2 gf) e2 g2 | (f2"^dim." eG gf) e d | %28
w: e- * jus _ lo- * *|que- * tur, et|lin- * gua|e- * * jus lo-|que- * * * * tur ju-|
 c3/2 c/ c2 z2!p! d2 | g2 g2 c2 f f |"^dim." (f3 e) d2 e2 | e3/2 e/ A2 z4 | z2!pp! d2 d2 e2 | %33
w: di- ci- um, et|lin- gua e- jus lo-|que- * tur ju-|di- ci- um,|et lin- gua|
 e2 c4 d2 | d2"^cresc." B4 c2 | (c2 A4) f2 | f2!mf! c2 c2 e2 | (e2 c2) (BA) (AG) | (c3 d e2 d2 | %39
w: e- jus lo-|que- tur ju-|di- * ci-|um, et lin- gua|e- * jus _ lo- *|que- * * *|
 cd) (cB)!ff! (c2 dc) | (d2 gf e2) (dc) | d4 z4 | z4!p! B4 | B6 B2 | c8 | c4 c4 |"^dim." e4 G2 G2 | %47
w: * * tur _ ju- * *|di- * * * ci- *|um.|Lex|De- i|e-|jus in|cor- de ip-|
 (c4 B4) | c4!pp! c4 | c4 c4 | z4!mf! [Ad]4 |"^cresc." (e3 g) g4 | (g2 f4 e2) | (e2 d4) c2 | %54
w: si- *|us, lex|De- i,|lex|De- * i,|lex _ _|De- * i|
 (c2 B2) B2 A2 |"^dim." A2 G G G2 F2 | z2 e2 A2 A2 | G4 A4 | z2!p! c2 A2 A2 | z2"^dim." c2 A2 A2 | %60
w: e- * jus in|cor- de ip- si- us,|in cor- de,|cor- de,|in cor- de,|in cor- de,|
 z4 z2!pp! c2 | G4 c2 d2 | (c4 G4- | G4 c4) | c2!ppp! c2 c2 c2 | c4 c4 | c4 c4 | c2 c2 c4 | %68
w: in|cor- de ip-|si- *||us: et non sup-|plan- ta-|bun- tur|gres- sus e-|
 c4 z4 ||!mp! (F!<(!G) A (Ac) (A!<)!!p!G) z |!>(! (FG) A G (G2!>)!!pp! F2) |] %71
w: jus.|Al- * le- lu- * ja, _|al- * le- lu- ja. _|
V:6
 x8 | x8 | x8 | x8 | x8 | x8 | x4 A4 | A4 A4 | x4 A2 A2 | c3 e e4 | A2 f2 G2 e2 | A2 d2 G2 c2- | %12
 c2 x6 | x8 | x8 | x8 | x8 | x8 | x8 | x8 | x8 | x8 | x8 | x8 | x8 | x8 | x8 | x8 | x8 | x8 | x8 | %31
 x8 | x8 | x8 | x8 | x8 | x8 | x8 | x8 | x8 | x8 | x8 | x8 | x8 | x8 | x8 | x8 | x8 | x4 A4 | %49
 A4 A4 | x8 | (c3 e) e4 | A2 f2 G2 e2 | (A2 d2 G2) c2 | x8 | x8 | x8 | x8 | x8 | x8 | x8 | x8 | %62
 x8 | x8 | x2 A2 A2 A2 | A4 A4 | A4 A4 | A2 A2 A4 | A4 x4 || x8 | x8 |] %71
V:7
 z4!p! F,4 | F,4 F,4 |!<(! F,6 E,2 | D,3 D, D,4!<)! |!mf! (G,4 A,2) A,2 | E,6 E,2 | F,4!p! F,4 | %7
w: Os|jus- ti|me- di-|ta- bi- tur|sa- * pi-|en- ti-|am, os|
 F,4 F,4 | z4!mf! F,2 F,2 | G,3 C C4 |!f! (C,4 C,4 | D,4 E,3 F, | G,2 G,,2 E,4 | E,2 E,2 C,2) C,2 | %14
w: jus- ti|me- di-|ta- bi- tur|sa- *|||* * * pi-|
"^dim." ((C,4 A,4)) | [G,,G,]4 z4 | z8 | z8 | z8 | z4 z2!p! A,2 | (A,2"^cresc." B,4) G,2 | %21
w: en- ti-|am:||||et|lin- * gua|
 (F,E,) (E,D,) (E,D,C,B,,) | (A,,B,,A,,G,,) F,,2 F,2 | A,3/2 A,/ G,2 (G,B,A,G,) | %24
w: e- * jus _ lo- * * *|que- * * * tur ju-|di- ci- um, lo- * * *|
 A,2 A,,2 (A,,B,,C,D,) | (E,A,,D,) C, D,2 z2 | z4 z2 C,2 | (D,2 E,4) C,2 | %28
w: que- tur ju- * * *|di- * * ci- um,|et|lin- * gua|
!p! (A,,B,,A,,G,,) A,,2 z2 | z8 | z8 | z4 z2!pp! A,2 | (A,2 B,4) G,2 | G,2 A,4 F,2 | %34
w: e- * * * jus,|||et|lin- * gua|e- jus lo-|
 F,2"^cresc." G,4 E,2 | (E,2 F,4) D,2 | A,,2!mf! A,,2 A,,2 A,,2 | (G,,A,,/B,,/) (C,E,) (G,2 F,E,) | %38
w: que- tur ju-|di- * ci-|um, et lin- gua|e- * * jus _ lo- * *|
 (C,6 B,,2 | A,,2) A,,2!ff! (A,,2 A,2) | G,6 G,2 | [G,,G,]4 z4 | z4!p! G,4 | G,6 G,2 | F,8 | %45
w: que- *|* tur ju- *|di- ci-|um.|Lex|De- i|e-|
 F,4 F,4 |"^dim." C,4 E,2 E,2 | (F,4 G,4) | F,4!pp! F,4 | F,4 F,4 | z4!mf! [D,F,]4 | %51
w: jus in|cor- de ip-|si- *|us, lex|De- i,|lex|
"^cresc." (G,3 C) C4 | C,8 | (D,4 E,3) F, | (G,2 G,,2) E,2 E,2 |"^dim." E,4 C,2 C,2 | C,2 C,2 D,4 | %57
w: De- * i,||De- * i|e- * jus in|cor- de ip-|si- us, in|
 (E,4 D,4) | C,4!p! D,4 |"^dim." E,4 D,2 D,2 |!pp! C,8- | C,4 C,2 C,2 | C,8- | C,8 | %64
w: cor- *|de, in|cor- de, in|cor-|* de ip-|si-||
 F,2!ppp! C,2 C,2 C,2 | C,4 C,4 | C,4 C,4 | C,2 C,2 C,4 | C,4 z4 || %69
w: * et non sup-|plan- ta-|bun- tur|gres- sus e-|jus.|
!mp! (F,!<(!G,) A, (A,C) (A,!<)!!p!G,) z |!>(! (F,G,) A, G, (G,2!>)!!pp! F,2) |] %71
w: Al- * le- lu- * ja, _|al- * le- lu- ja. _|
V:8
 x8 | x8 | x8 | x8 | x8 | x8 | x8 | x8 | x4 D,2 D,2 | C,3 C, C,4 | (F,,4 C,4 | D,4 E,3 F, | %12
w: ||||||||||||
 G,2 G,,2 A,,4 | E,2 E,,2 F,,2) F,,2 | (C,4 A,,4) | z8 | x8 | x8 | x8 | x8 | x8 | x8 | x8 | x8 | %24
w: ||||||||||||
 x8 | x8 | x8 | x8 | x8 | x8 | x8 | x8 | x8 | x8 | x8 | x8 | x8 | x8 | x8 | x8 | x8 | x8 | x8 | %43
w: |||||||||||||||||||
 x8 | x8 | x8 | x8 | x8 | x8 | x8 | x8 | C,4 C,4 | (F,,4 C,4) | (D,4 E,3) F, | %54
w: |||||||||lex _|_ _ _|
 (G,2 G,,2) A,,2 A,,2 | (E,2 E,,2) F,,2 F,,2 | C,2 C,2 x4 | x8 | x8 | x8 | x8 | x8 | x8 | x8 | %64
w: ||||||||||
 F,,2 F,,2 F,,2 F,,2 | F,,4 F,,4 | F,,4 F,,4 | F,,2 F,,2 F,,4 | F,,4 x4 || x8 | x8 |] %71
w: |||||||

